Flat-Remix-Dark/apps/scalable/akregator.svg

<svg xmlns="http://www.w3.org/2000/svg" xmlns:xlink="http://www.w3.org/1999/xlink" width="384pt" height="384pt" version="1.1" viewBox="0 0 384 384"> <defs> <filter id="alpha" width="100%" height="100%" x="0%" y="0%" filterUnits="objectBoundingBox"> <feColorMatrix in="SourceGraphic" type="matrix" values="0 0 0 0 1 0 0 0 0 1 0 0 0 0 1 0 0 0 1 0"/> </filter> <mask id="mask0"> <g filter="url(#alpha)"> <rect width="384" height="384" x="0" y="0" style="fill:rgb(0%,0%,0%);fill-opacity:0.2"/> </g> </mask> <clipPath id="clip1"> <rect width="384" height="384" x="0" y="0"/> </clipPath> <g id="surface5" clip-path="url(#clip1)"> <path style="fill:rgb(0%,0%,0%)" d="M 36 295.199219 L 36 307.199219 C 36 330.601562 59.40625 354 82.804688 354 L 301.199219 354 C 324.601562 354 348 330.601562 348 307.199219 C 348 303.792969 347.867188 300.445312 347.761719 297.097656 C 346.546875 319.835938 323.964844 342 301.199219 342 L 82.804688 342 C 59.410156 342 36.003906 318.601562 36.003906 295.199219 Z M 36 295.199219"/> </g> <mask id="mask1"> <g filter="url(#alpha)"> <rect width="384" height="384" x="0" y="0" style="fill:rgb(0%,0%,0%);fill-opacity:0.2"/> </g> </mask> <clipPath id="clip2"> <rect width="384" height="384" x="0" y="0"/> </clipPath> <g id="surface8" clip-path="url(#clip2)"> <path style="fill:rgb(0%,0%,0%)" d="M 72 120.003906 C 72 132.675781 77.386719 138.003906 90 138.003906 C 179.46875 138.003906 251.996094 210.53125 251.996094 300 C 251.996094 311.195312 258.105469 318 269.996094 318 C 282.234375 318 287.996094 310.847656 287.996094 300 C 287.996094 190.648438 199.351562 102.003906 90 102.003906 C 78.03125 102.003906 72 107.828125 72 120.003906 Z M 72 192.003906 C 72 204.332031 77.042969 210.003906 90 210.003906 C 139.703125 210.003906 179.996094 250.296875 179.996094 300 C 179.996094 310.597656 186.082031 318 197.996094 318 C 209.625 318 215.996094 311.542969 215.996094 300 C 215.996094 230.414062 159.585938 174.003906 90 174.003906 C 78.375 174.003906 72 179.140625 72 192.003906 Z M 108 246 C 88.117188 246 72 262.117188 72 282 C 72 301.886719 88.117188 318 108 318 C 127.882812 318 144 301.886719 144 282 C 144 262.117188 127.882812 246 108 246 Z M 108 246"/> </g> <mask id="mask2"> <g filter="url(#alpha)"> <rect width="384" height="384" x="0" y="0" style="fill:rgb(0%,0%,0%);fill-opacity:0.101961"/> </g> </mask> <clipPath id="clip3"> <rect width="384" height="384" x="0" y="0"/> </clipPath> <g id="surface11" clip-path="url(#clip3)"> <path style="fill:rgb(100.000%,100.000%,100.000%)" d="M 82.804688 36 C 59.40625 36 36 59.40625 36 82.804688 L 36 88.804688 C 36 65.40625 59.40625 42 82.804688 42 C 237.085938 42 345.515625 148.839844 347.882812 302.097656 C 347.933594 301.796875 348 301.496094 348 301.195312 C 348 145.199219 238.800781 36 82.804688 36 Z M 82.804688 36"/> </g> </defs> <g> <use mask="url(#mask0)" xlink:href="#surface5"/> <path style="fill:rgb(100.000%,78.039%,18.823%)" d="M 347.996094 301.199219 C 347.996094 145.203125 238.796875 36.003906 82.800781 36.003906 C 59.398438 36.003906 36 59.40625 36 82.804688 L 36 301.199219 C 36 324.601562 59.398438 348 82.800781 348 L 301.195312 348 C 324.59375 348 347.996094 324.601562 347.996094 301.199219 Z M 347.996094 301.199219"/> <use mask="url(#mask1)" xlink:href="#surface8"/> <path style="fill:rgb(100.000%,100.000%,100.000%)" d="M 72 114.003906 C 72 126.675781 77.386719 132.003906 90 132.003906 C 179.46875 132.003906 251.996094 204.53125 251.996094 294 C 251.996094 305.195312 258.105469 312 269.996094 312 C 282.234375 312 287.996094 304.847656 287.996094 294 C 287.996094 184.648438 199.351562 96.003906 90 96.003906 C 78.03125 96.003906 72 101.828125 72 114.003906 Z M 72 186.003906 C 72 198.332031 77.042969 204.003906 90 204.003906 C 139.703125 204.003906 179.996094 244.296875 179.996094 294 C 179.996094 304.597656 186.082031 312 197.996094 312 C 209.625 312 215.996094 305.542969 215.996094 294 C 215.996094 224.414062 159.585938 168.003906 90 168.003906 C 78.375 168.003906 72 173.140625 72 186.003906 Z M 108 240 C 88.117188 240 72 256.117188 72 276 C 72 295.886719 88.117188 312 108 312 C 127.882812 312 144 295.886719 144 276 C 144 256.117188 127.882812 240 108 240 Z M 108 240"/> <use mask="url(#mask2)" xlink:href="#surface11"/> </g> </svg>

<svg width="512" height="512" version="1.1" viewBox="0 0 384 384" xmlns="http://www.w3.org/2000/svg"><defs><clipPath><rect width="384" height="384"/></clipPath></defs><path d="m348 308.7c0-156-109.2-265.2-265.2-265.2-23.402 0-46.801 23.402-46.801 46.801v218.39c0 23.402 23.398 46.801 46.801 46.801h218.39c23.398 0 46.801-23.398 46.801-46.801z" opacity=".3"/><path d="m348 301.2c0-156-109.2-265.2-265.2-265.2-23.402 0-46.801 23.402-46.801 46.801v218.39c0 23.402 23.398 46.801 46.801 46.801h218.39c23.398 0 46.801-23.398 46.801-46.801z" fill="#ffc72e"/><path d="m72 121.5c0 12.672 5.3867 18 18 18 89.469 0 162 72.527 162 162 0 11.195 6.1094 18 18 18 12.238 0 18-7.1523 18-18 0-109.35-88.645-198-198-198-11.969 0-18 5.8242-18 18zm0 72c0 12.328 5.043 18 18 18 49.703 0 89.996 40.293 89.996 89.996 0 10.598 6.086 18 18 18 11.629 0 18-6.457 18-18 0-69.586-56.41-126-126-126-11.625 0-18 5.1367-18 18zm36 53.996c-19.883 0-36 16.117-36 36 0 19.887 16.117 36 36 36s36-16.113 36-36c0-19.883-16.117-36-36-36z" opacity=".3"/><path d="m72 114c0 12.672 5.3867 18 18 18 89.469 0 162 72.527 162 162 0 11.195 6.1094 18 18 18 12.238 0 18-7.1523 18-18 0-109.35-88.645-198-198-198-11.969 0-18 5.8242-18 18zm0 72c0 12.328 5.043 18 18 18 49.703 0 89.996 40.293 89.996 89.996 0 10.598 6.0859 18 18 18 11.629 0 18-6.457 18-18 0-69.586-56.41-126-126-126-11.625 0-18 5.1367-18 18zm36 53.996c-19.883 0-36 16.117-36 36 0 19.887 16.117 36 36 36s36-16.113 36-36c0-19.883-16.117-36-36-36z" fill="#fff"/></svg>
